X: 1
T: V\aard\ol'n, reinlender etter Hans Brimi
R: shottish
O: Norway
M: 4/4
L: 1/8
Z: 2007 John Chambers <jc:trillian.mit.edu>
K: D
|: "D"D2F2 A,2F2 | "A7"EDCE "D"D2D2 |1,3 "A7"CDEF GECE | "D"DEFG "A7"AGFE :|2,4 "A7"CDEF GABc | "D"d2d2 d4 :|
|: "D"Afed "A7"dcc2 | "G"BdcB "D"BAA2 | "D"FADF "A7"EGCE |1,3 "D"D2d2 "(A7)"A4 :|2,4 "D"D2D2 D4 :|
